build/Karasa-Jaga/scalable/apps/preferences-system-notifications-symbolic.svg

<svg height="16" width="16" xmlns="http://www.w3.org/2000/svg"><g fill="#bebebe"><path d="m8 .875c-3.9381975 0-7.125 3.1868025-7.125 7.125 0 3.938198 3.1868025 7.125 7.125 7.125 3.938198 0 7.125-3.186802 7.125-7.125 0-3.9381975-3.186802-7.125-7.125-7.125zm-.53125 1.90625c.1758596-.0178712.3506918 0 .53125 0 .1805583 0 .3553904-.0178712.53125 0 .3517193.0357423.7035943.1167921 1.03125.21875.491484.1529369.957418.3740868 1.375.65625.556776.3762177 1.030032.8494741 1.40625 1.40625.282163.4175819.503313.8835164.65625 1.375.101958.3276557.183008.6795308.21875 1.03125.017871.1758596 0 .3506918 0 .53125 0 .1805583.017871.3554167 0 .53125-.035742.3516667-.116792.703731-.21875 1.03125-.152937.491278-.374087.957734-.65625 1.375-.376218.556355-.849474 1.030453-1.40625 1.40625-.417582.281848-.883516.503518-1.375.65625-.3276557.101821-.6795307.18306-1.03125.21875-.1758596.017845-.3506917 0-.53125 0-.1805582 0-.3553904.017845-.53125 0-.3517192-.03569-.7035943-.116929-1.03125-.21875-.4914836-.152732-.9574181-.374402-1.375-.65625-.5567759-.375797-1.0300323-.849895-1.40625-1.40625-.2821632-.417266-.5033131-.883722-.65625-1.375-.1019579-.327519-.1830077-.6795833-.21875-1.03125-.0178712-.1758333 0-.3506917 0-.53125 0-.1805582-.0178712-.3553904 0-.53125.0357423-.3517192.1167921-.7035943.21875-1.03125.1529369-.4914836.3740868-.9574181.65625-1.375.3762177-.5567759.8494741-1.0300323 1.40625-1.40625.4175819-.2821632.8835164-.5033131 1.375-.65625.3276557-.1019579.6795308-.1830077 1.03125-.21875z"/><path d="m7.9820431 3.1462478c-.7007366 0-1.3754969.8284498-1.3754991 1.5981648l.1077414.1687949c.0000001-.048107.00287-.096871.00718-.1436552v2.7330413c-.00109-.023749-.00359-.047774-.00359-.071828v.122107c0 .7697116.5670221 1.3898646 1.2677577 1.3898646.5775063-.0000004 1.0609452-.4227545 1.2138869-1.0019954.010015-.035465.017689-.071112.02514-.1077415.00155-.00833.00218-.016756.00359-.02514.0067-.036067.013845-.074297.017957-.1113329.0002183-.00234-.0002069-.00484 0-.00718.00483-.045438.00641-.089786.00718-.1364725v-.02514-2.6252999l.1005587-.1580208c0-.7697128-.671171-1.5981648-1.3719077-1.5981648zm-.064645 6.8739042c-.6435738 0-1.1653539.553485-1.1707904 1.242618.000036.0012-.0000392.0024 0 .0036-.0000126.0024 0 .0048 0 .0072-.000015.0082 0 .01688 0 .02514v.01077.02514c0 .0086-.0001609.01653 0 .02514.00124.03366.00352.06764.00718.100559.00401.03599.00757.07276.014365.107742.00105.0059.00247.01207.00359.01796.1095426.572254.5831677 1.001996 1.1492421 1.001996h.1939346c.6469384 0 1.167199-.559248 1.167199-1.253392v-.03591c0-.01181.0002988-.02419 0-.03591-.0004252.01446-.00271.02876-.00359.0431v-.03232c0-.694143-.5202592-1.253391-1.167199-1.253392h-.1939346z"/></g></svg>

<?xml version="1.0" encoding="UTF-8" standalone="no"?>
<!-- Created with Inkscape (http://www.inkscape.org/) -->

<svg
   xmlns:dc="http://purl.org/dc/elements/1.1/"
   xmlns:cc="http://creativecommons.org/ns#"
   xmlns:rdf="http://www.w3.org/1999/02/22-rdf-syntax-ns#"
   xmlns:svg="http://www.w3.org/2000/svg"
   xmlns="http://www.w3.org/2000/svg"
   xmlns:sodipodi="http://sodipodi.sourceforge.net/DTD/sodipodi-0.dtd"
   xmlns:inkscape="http://www.inkscape.org/namespaces/inkscape"
   id="svg2827"
   height="16px"
   width="16px"
   version="1.1"
   inkscape:version="0.48.4 r9939"
   sodipodi:docname="preferences-system-privacy-symbolic.svg">
  <defs
     id="defs11" />
  <sodipodi:namedview
     pagecolor="#ffffff"
     bordercolor="#666666"
     borderopacity="1"
     objecttolerance="10"
     gridtolerance="10"
     guidetolerance="10"
     inkscape:pageopacity="0"
     inkscape:pageshadow="2"
     inkscape:window-width="1364"
     inkscape:window-height="703"
     id="namedview9"
     showgrid="false"
     inkscape:zoom="16.968792"
     inkscape:cx="17.546446"
     inkscape:cy="9.5349256"
     inkscape:window-x="0"
     inkscape:window-y="0"
     inkscape:window-maximized="1"
     inkscape:current-layer="svg2827" />
  <metadata
     id="metadata2832">
    <rdf:RDF>
      <cc:Work
         rdf:about="">
        <dc:format>image/svg+xml</dc:format>
        <dc:type
           rdf:resource="http://purl.org/dc/dcmitype/StillImage" />
        <dc:title></dc:title>
      </cc:Work>
    </rdf:RDF>
  </metadata>
  <g
     id="g14577">
    <path
       id="path14569"
       d="M 8 0.875 C 4.0618025 0.875 0.875 4.0618025 0.875 8 C 0.875 11.938198 4.0618025 15.125 8 15.125 C 11.938198 15.125 15.125 11.938198 15.125 8 C 15.125 4.0618025 11.938198 0.875 8 0.875 z M 7.46875 2.78125 C 7.6446096 2.7633788 7.8194418 2.78125 8 2.78125 C 8.1805583 2.78125 8.3553904 2.7633788 8.53125 2.78125 C 8.8829693 2.8169923 9.2348443 2.8980421 9.5625 3 C 10.053984 3.1529369 10.519918 3.3740868 10.9375 3.65625 C 11.494276 4.0324677 11.967532 4.5057241 12.34375 5.0625 C 12.625913 5.4800819 12.847063 5.9460164 13 6.4375 C 13.101958 6.7651557 13.183008 7.1170308 13.21875 7.46875 C 13.236621 7.6446096 13.21875 7.8194418 13.21875 8 C 13.21875 8.1805583 13.236621 8.3554167 13.21875 8.53125 C 13.183008 8.8829167 13.101958 9.234981 13 9.5625 C 12.847063 10.053778 12.625913 10.520234 12.34375 10.9375 C 11.967532 11.493855 11.494276 11.967953 10.9375 12.34375 C 10.519918 12.625598 10.053984 12.847268 9.5625 13 C 9.2348443 13.101821 8.8829693 13.18306 8.53125 13.21875 C 8.3553904 13.236595 8.1805583 13.21875 8 13.21875 C 7.8194418 13.21875 7.6446096 13.236595 7.46875 13.21875 C 7.1170308 13.18306 6.7651557 13.101821 6.4375 13 C 5.9460164 12.847268 5.4800819 12.625598 5.0625 12.34375 C 4.5057241 11.967953 4.0324677 11.493855 3.65625 10.9375 C 3.3740868 10.520234 3.1529369 10.053778 3 9.5625 C 2.8980421 9.234981 2.8169923 8.8829167 2.78125 8.53125 C 2.7633788 8.3554167 2.78125 8.1805583 2.78125 8 C 2.78125 7.8194418 2.7633788 7.6446096 2.78125 7.46875 C 2.8169923 7.1170308 2.8980421 6.7651557 3 6.4375 C 3.1529369 5.9460164 3.3740868 5.4800819 3.65625 5.0625 C 4.0324677 4.5057241 4.5057241 4.0324677 5.0625 3.65625 C 5.4800819 3.3740868 5.9460164 3.1529369 6.4375 3 C 6.7651557 2.8980421 7.1170308 2.8169923 7.46875 2.78125 z "
       style="fill:#bebebe;fill-opacity:1;stroke:none" />
    <path
       id="path10264"
       d="m 7.9820431,3.1462478 c -0.7007366,0 -1.3754969,0.8284498 -1.3754991,1.5981648 l 0.1077414,0.1687949 c 1e-7,-0.048107 0.00287,-0.096871 0.00718,-0.1436552 l 0,2.7330413 c -0.00109,-0.023749 -0.00359,-0.047774 -0.00359,-0.071828 l 0,0.122107 c 0,0.7697116 0.5670221,1.3898646 1.2677577,1.3898646 0.5775063,-4e-7 1.0609452,-0.4227545 1.2138869,-1.0019954 0.010015,-0.035465 0.017689,-0.071112 0.02514,-0.1077415 0.00155,-0.00833 0.00218,-0.016756 0.00359,-0.02514 0.0067,-0.036067 0.013845,-0.074297 0.017957,-0.1113329 2.183e-4,-0.00234 -2.069e-4,-0.00484 0,-0.00718 0.00483,-0.045438 0.00641,-0.089786 0.00718,-0.1364725 l 0,-0.02514 0,-2.6252999 0.1005587,-0.1580208 c 0,-0.7697128 -0.671171,-1.5981648 -1.3719077,-1.5981648 z m -0.064645,6.8739042 c -0.6435738,0 -1.1653539,0.553485 -1.1707904,1.242618 3.6e-5,0.0012 -3.92e-5,0.0024 0,0.0036 -1.26e-5,0.0024 0,0.0048 0,0.0072 -1.5e-5,0.0082 0,0.01688 0,0.02514 l 0,0.01077 0,0.02514 c 0,0.0086 -1.609e-4,0.01653 0,0.02514 0.00124,0.03366 0.00352,0.06764 0.00718,0.100559 0.00401,0.03599 0.00757,0.07276 0.014365,0.107742 0.00105,0.0059 0.00247,0.01207 0.00359,0.01796 0.1095426,0.572254 0.5831677,1.001996 1.1492421,1.001996 l 0.1939346,0 c 0.6469384,0 1.167199,-0.559248 1.167199,-1.253392 l 0,-0.03591 c 0,-0.01181 2.988e-4,-0.02419 0,-0.03591 -4.252e-4,0.01446 -0.00271,0.02876 -0.00359,0.0431 l 0,-0.03232 c 0,-0.694143 -0.5202592,-1.253391 -1.167199,-1.253392 l -0.1939346,0 z"
       style="fill:#bebebe;fill-opacity:1;stroke:none;overflow:visible"
       inkscape:connector-curvature="0" />
  </g>
</svg>
